public/avatar/item2/63.svg

<svg xmlns:xlink="http://www.w3.org/1999/xlink" height="99.2" width="82.2" xmlns="http://www.w3.org/2000/svg"><use height="28.45" transform="translate(12.7 62.05)" width="35.95" xlink:href="#a"/><defs><g id="a" fill-rule="evenodd"><path d="M15.8 20q-2.45 2.9-6.75 6.05Q3.25 30.3-.2 30q-2.9-.2-7.4-2.9-4.9-2.95-9.4-7.6l1.35-1.3q4.2 4.3 8.85 7.15 4.2 2.55 6.75 2.75 2.65.25 7.75-3.45 4.2-3.05 6.65-5.9L15.8 20" fill="#020202" transform="translate(18.3 -15.3)"/><path d="m1.3 29.05.15 6.8-1.9.05-.15-6.8 1.9-.05" fill="#020202" transform="translate(18.3 -15.3)"/><path d="M.35 35.8q1.65 0 2.8 1.15 1.15 1.2 1.15 2.8 0 1.65-1.15 2.85Q2 43.75.35 43.75t-2.8-1.15q-1.2-1.2-1.2-2.85 0-1.6 1.2-2.8Q-1.3 35.8.35 35.8" transform="translate(18.3 -15.3)"/><path d="M3.4 39.75q0 3.1-3.05 3.1t-3.05-3.1q0-3.05 3.05-3.05t3.05 3.05" fill="#a2a3a2" transform="translate(18.3 -15.3)"/><path d="M.25 39.5v.1l-1.35-2.5.85-.3.5 2.7m-.15-.1v.55l-2.05 1.85q-.75-.9-.75-2.05 0-1.1.75-2L.1 39.4" fill="#fff" transform="translate(18.3 -15.3)"/><path d="M.3 40.05.35 40l.4 2.8h-.9l.45-2.75m.1.15.2-.5 2.6-1q.4 1.05 0 2.15-.45 1.1-1.45 1.65L.4 40.2" fill="#686867" transform="translate(18.3 -15.3)"/><path d="m.4 40.2.05-.1L2.4 42l-.65.5L.4 40.2" fill="#fff" transform="translate(18.3 -15.3)"/><path d="M1.8 39.75q0 1.5-1.45 1.5-1.5 0-1.5-1.5 0-1.45 1.5-1.45 1.45 0 1.45 1.45" fill="#020202" transform="translate(18.3 -15.3)"/><path d="m2.15 30.45-.25 3.5H-.7l-.5-3.5-2.75-1 .75-3 3.6 1.5 4.1-1.85.95 2.9-3.3 1.45" transform="translate(18.3 -15.3)"/><path d="M4.3 28.45 1.25 29.8 1 33l-.75-.05-.6-3.2-2.5-.9.3-1.1 3 1.25 3.5-1.6.35 1.05" fill="#8e8e8d" transform="translate(18.3 -15.3)"/><path d="m-14 17.9-.45.55.3.4.1.4-.1.25q-1.25 1.5-2.5 1.3l-.35-.15q-1.75-1.75-1.15-3.35.65-1.6 2.15-1.75.5 0 1.15.6.9.9.9 1.5l-.05.25" fill="#050505" transform="translate(18.3 -15.3)"/><path d="M-16.4 19.8q-1.35-1.3-.75-2.4.45-.8 1.2-.9 1 0 1 1.05l-.55.65.5.8q-1.15 1.6-1.4.8" fill="#8e8e8d" transform="translate(18.3 -15.3)"/><path d="M15.35 15.3q1.4 0 2.15 1.7.55 1.65-1.15 3.35l-.35.2-1.4-.5-1.1-.85-.1-.25.1-.35.3-.45-.4-.5-.1-.3.95-1.45 1.1-.6" fill="#050505" transform="translate(18.3 -15.3)"/><path d="M15.75 19.55q-.15.45-1.4-.8l.5-.85-.55-.6q0-1.15 1-1.05.7 0 1.2.85.6 1.1-.75 2.45" fill="#8e8e8d" transform="translate(18.3 -15.3)"/></g></defs></svg>

<?xml version="1.0" encoding="UTF-8" standalone="no"?>
<svg xmlns:xlink="http://www.w3.org/1999/xlink" height="99.2px" width="82.2px" xmlns="http://www.w3.org/2000/svg">
  <g transform="matrix(1.0, 0.0, 0.0, 1.0, 31.0, 46.75)">
    <use height="28.45" transform="matrix(1.0, 0.0, 0.0, 1.0, -18.3, 15.3)" width="35.95" xlink:href="#shape0"/>
  </g>
  <defs>
    <g id="shape0" transform="matrix(1.0, 0.0, 0.0, 1.0, 18.3, -15.3)">
      <path d="M15.8 20.0 Q13.35 22.9 9.05 26.05 3.25 30.3 -0.2 30.0 -3.1 29.8 -7.6 27.1 -12.5 24.15 -17.0 19.5 L-15.65 18.2 Q-11.45 22.5 -6.8 25.35 -2.6 27.9 -0.05 28.1 2.6 28.35 7.7 24.65 11.9 21.6 14.35 18.75 L15.8 20.0" fill="#020202" fill-rule="evenodd" stroke="none"/>
      <path d="M1.3 29.05 L1.45 35.85 -0.45 35.9 -0.6 29.1 1.3 29.05" fill="#020202" fill-rule="evenodd" stroke="none"/>
      <path d="M0.35 35.8 Q2.0 35.8 3.15 36.95 4.3 38.15 4.3 39.75 4.3 41.4 3.15 42.6 2.0 43.75 0.35 43.75 -1.3 43.75 -2.45 42.6 -3.65 41.4 -3.65 39.75 -3.65 38.15 -2.45 36.95 -1.3 35.8 0.35 35.8" fill="#000000" fill-rule="evenodd" stroke="none"/>
      <path d="M3.4 39.75 Q3.4 42.85 0.35 42.85 -2.7 42.85 -2.7 39.75 -2.7 36.7 0.35 36.7 3.4 36.7 3.4 39.75" fill="#a2a3a2" fill-rule="evenodd" stroke="none"/>
      <path d="M0.25 39.5 L0.25 39.6 -1.1 37.1 -0.25 36.8 0.25 39.5" fill="#ffffff" fill-rule="evenodd" stroke="none"/>
      <path d="M0.1 39.4 L0.1 39.95 -1.95 41.8 Q-2.7 40.9 -2.7 39.75 -2.7 38.65 -1.95 37.75 L0.1 39.4" fill="#ffffff" fill-rule="evenodd" stroke="none"/>
      <path d="M0.3 40.05 L0.35 40.0 0.75 42.8 -0.15 42.8 0.3 40.05" fill="#686867" fill-rule="evenodd" stroke="none"/>
      <path d="M0.4 40.2 L0.6 39.7 3.2 38.7 Q3.6 39.75 3.2 40.85 2.75 41.95 1.75 42.5 L0.4 40.2" fill="#686867" fill-rule="evenodd" stroke="none"/>
      <path d="M0.4 40.2 L0.45 40.1 2.4 42.0 1.75 42.5 0.4 40.2" fill="#ffffff" fill-rule="evenodd" stroke="none"/>
      <path d="M1.8 39.75 Q1.8 41.25 0.35 41.25 -1.15 41.25 -1.15 39.75 -1.15 38.3 0.35 38.3 1.8 38.3 1.8 39.75" fill="#020202" fill-rule="evenodd" stroke="none"/>
      <path d="M2.15 30.45 L1.9 33.95 -0.7 33.95 -1.2 30.45 -3.95 29.45 -3.2 26.45 0.4 27.95 4.5 26.1 5.45 29.0 2.15 30.45" fill="#000000" fill-rule="evenodd" stroke="none"/>
      <path d="M4.3 28.45 L1.25 29.8 1.0 33.0 0.25 32.95 -0.35 29.75 -2.85 28.85 -2.55 27.75 0.45 29.0 3.95 27.4 4.3 28.45" fill="#8e8e8d" fill-rule="evenodd" stroke="none"/>
      <path d="M-14.0 17.9 L-14.45 18.45 -14.15 18.85 -14.05 19.25 -14.15 19.5 Q-15.4 21.0 -16.65 20.8 L-17.0 20.65 Q-18.75 18.9 -18.15 17.3 -17.5 15.7 -16.0 15.55 -15.5 15.55 -14.85 16.15 -13.95 17.05 -13.95 17.65 L-14.0 17.9" fill="#050505" fill-rule="evenodd" stroke="none"/>
      <path d="M-16.4 19.8 Q-17.75 18.5 -17.15 17.4 -16.7 16.6 -15.95 16.5 -14.95 16.5 -14.95 17.55 L-15.5 18.2 -15.0 19.0 Q-16.15 20.6 -16.4 19.8" fill="#8e8e8d" fill-rule="evenodd" stroke="none"/>
      <path d="M15.35 15.3 Q16.75 15.3 17.5 17.0 18.05 18.65 16.35 20.35 L16.0 20.55 14.6 20.05 13.5 19.2 13.4 18.95 13.5 18.6 13.8 18.15 13.4 17.65 13.3 17.35 14.25 15.9 15.35 15.3" fill="#050505" fill-rule="evenodd" stroke="none"/>
      <path d="M15.75 19.55 Q15.6 20.0 14.35 18.75 L14.85 17.9 14.3 17.3 Q14.3 16.15 15.3 16.25 16.0 16.25 16.5 17.1 17.1 18.2 15.75 19.55" fill="#8e8e8d" fill-rule="evenodd" stroke="none"/>
    </g>
  </defs>
</svg>
